X: 10062
Q: "Slow"
M: C
L: 1/8
K: G
d>B B>G A>GAB | G>EE>D G2G :|
|: e |\
d>B B>G A>GAB | d>B B>d e3 g |\
d>BBG A>GA>B | G>EE>D G2G :|


